ummisco.gama.ui.shared/svg/branding/ummisco.gama.feature.dependencies.ui.svg

<svg xmlns="http://www.w3.org/2000/svg" xmlns:xl="http://www.w3.org/1999/xlink" width="48" height="48" version="1.1" viewBox="-652 -3145.185 48 48"><g id="ICONES" fill="none" fill-opacity="1" stroke="none" stroke-dasharray="none" stroke-opacity="1"><title>ICONES</title><g id="ICONES_Calque_1"><title>Calque 1</title><g id="Group_4265"><g id="Graphic_3991"><path fill="#fff" d="M -649 -3145.1854 L -607 -3145.1854 C -605.34315 -3145.1854 -604 -3143.8423 -604 -3142.1854 L -604 -3100.1854 C -604 -3098.5286 -605.34315 -3097.1854 -607 -3097.1854 L -649 -3097.1854 C -650.65685 -3097.1854 -652 -3098.5286 -652 -3100.1854 L -652 -3142.1854 C -652 -3143.8423 -650.65685 -3145.1854 -649 -3145.1854 Z"/></g><g id="Group_3984"><g id="Graphic_3990"><path fill="#efb54f" fill-opacity=".252" d="M -650.60404 -3122.734 L -647.57504 -3122.734 C -647.2233 -3127.2347 -645.3262 -3131.6373 -641.8837 -3135.0797 C -634.2153 -3142.7482 -621.78225 -3142.7482 -614.1138 -3135.0797 C -610.6713 -3131.6373 -608.7742 -3127.2347 -608.4225 -3122.734 L -605.3935 -3122.734 C -605.7505 -3128.0092 -607.9452 -3133.1835 -611.97765 -3137.216 C -620.8259 -3146.064 -635.17165 -3146.064 -644.0199 -3137.216 C -648.0523 -3133.1835 -650.247 -3128.0092 -650.60404 -3122.734 Z"/><path stroke="#efb64f" stroke-linecap="round" stroke-linejoin="round" stroke-width="0" d="M -650.60404 -3122.734 L -647.57504 -3122.734 C -647.2233 -3127.2347 -645.3262 -3131.6373 -641.8837 -3135.0797 C -634.2153 -3142.7482 -621.78225 -3142.7482 -614.1138 -3135.0797 C -610.6713 -3131.6373 -608.7742 -3127.2347 -608.4225 -3122.734 L -605.3935 -3122.734 C -605.7505 -3128.0092 -607.9452 -3133.1835 -611.97765 -3137.216 C -620.8259 -3146.064 -635.17165 -3146.064 -644.0199 -3137.216 C -648.0523 -3133.1835 -650.247 -3128.0092 -650.60404 -3122.734 Z"/></g><g id="Graphic_3989"><path fill="#d3673a" fill-opacity=".249" d="M -644.9256 -3122.6968 L -641.8903 -3122.6968 C -641.5613 -3125.7568 -640.22406 -3128.729 -637.87844 -3131.0745 C -632.42204 -3136.531 -623.5755 -3136.531 -618.1191 -3131.0745 C -615.77346 -3128.729 -614.4362 -3125.7568 -614.10724 -3122.6968 L -611.0719 -3122.6968 C -611.4102 -3126.5324 -613.0472 -3130.275 -615.9829 -3133.2106 C -622.6191 -3139.8468 -633.3784 -3139.8468 -640.0146 -3133.2106 C -642.9503 -3130.275 -644.5873 -3126.5324 -644.9256 -3122.6968 Z"/><path stroke="#d2673a" stroke-linecap="round" stroke-linejoin="round" stroke-width="0" d="M -644.9256 -3122.6968 L -641.8903 -3122.6968 C -641.5613 -3125.7568 -640.22406 -3128.729 -637.87844 -3131.0745 C -632.42204 -3136.531 -623.5755 -3136.531 -618.1191 -3131.0745 C -615.77346 -3128.729 -614.4362 -3125.7568 -614.10724 -3122.6968 L -611.0719 -3122.6968 C -611.4102 -3126.5324 -613.0472 -3130.275 -615.9829 -3133.2106 C -622.6191 -3139.8468 -633.3784 -3139.8468 -640.0146 -3133.2106 C -642.9503 -3130.275 -644.5873 -3126.5324 -644.9256 -3122.6968 Z"/></g><g id="Graphic_3988"><path fill="#3570a0" fill-opacity=".25" d="M -639.223 -3122.734 L -636.1634 -3122.734 C -635.8655 -3124.322 -635.1021 -3125.8403 -633.8732 -3127.0692 C -630.6288 -3130.3136 -625.3687 -3130.3136 -622.12435 -3127.0692 C -620.89544 -3125.8403 -620.132 -3124.322 -619.8341 -3122.734 L -616.7745 -3122.734 C -617.0973 -3125.101 -618.16856 -3127.3857 -619.9882 -3129.2053 C -624.4123 -3133.6295 -631.5852 -3133.6295 -636.0093 -3129.2053 C -637.82896 -3127.3857 -638.9002 -3125.101 -639.223 -3122.734 Z"/><path stroke="#3770a0" stroke-linecap="round" stroke-linejoin="round" stroke-width="0" d="M -639.223 -3122.734 L -636.1634 -3122.734 C -635.8655 -3124.322 -635.1021 -3125.8403 -633.8732 -3127.0692 C -630.6288 -3130.3136 -625.3687 -3130.3136 -622.12435 -3127.0692 C -620.89544 -3125.8403 -620.132 -3124.322 -619.8341 -3122.734 L -616.7745 -3122.734 C -617.0973 -3125.101 -618.16856 -3127.3857 -619.9882 -3129.2053 C -624.4123 -3133.6295 -631.5852 -3133.6295 -636.0093 -3129.2053 C -637.82896 -3127.3857 -638.9002 -3125.101 -639.223 -3122.734 Z"/></g><g id="Graphic_3987"><path fill="#d3673a" d="M -644.94556 -3122.734 L -641.9097 -3122.734 C -641.5758 -3125.7844 -640.2395 -3128.746 -637.90076 -3131.0848 C -635.1525 -3133.833 -631.5442 -3135.197 -627.94224 -3135.177 C -626.0555 -3135.1663 -624.1705 -3134.776 -622.4117 -3134.0057 L -621.23095 -3136.7874 C -623.36784 -3137.718 -625.657 -3138.188 -627.9478 -3138.198 C -632.32104 -3138.2167 -636.7002 -3136.5577 -640.0369 -3133.221 C -642.96576 -3130.292 -644.602 -3126.56 -644.94556 -3122.734 Z"/><path stroke="#d2673a" stroke-linecap="round" stroke-linejoin="round" stroke-width="0" d="M -644.94556 -3122.734 L -641.9097 -3122.734 C -641.5758 -3125.7844 -640.2395 -3128.746 -637.90076 -3131.0848 C -635.1525 -3133.833 -631.5442 -3135.197 -627.94224 -3135.177 C -626.0555 -3135.1663 -624.1705 -3134.776 -622.4117 -3134.0057 L -621.23095 -3136.7874 C -623.36784 -3137.718 -625.657 -3138.188 -627.9478 -3138.198 C -632.32104 -3138.2167 -636.7002 -3136.5577 -640.0369 -3133.221 C -642.96576 -3130.292 -644.602 -3126.56 -644.94556 -3122.734 Z"/></g><g id="Graphic_3986"><path fill="#3570a0" d="M -639.1785 -3122.6968 L -636.1229 -3122.6968 C -635.83565 -3124.3136 -635.06744 -3125.8616 -633.8182 -3127.111 C -632.31135 -3128.6177 -630.3696 -3129.4247 -628.397 -3129.5318 L -628.397 -3132.556 C -631.1434 -3132.4468 -633.8576 -3131.3438 -635.9544 -3129.247 C -637.7942 -3127.407 -638.8689 -3125.092 -639.1785 -3122.6968 Z"/><path stroke="#3770a0" stroke-linecap="round" stroke-linejoin="round" stroke-width="0" d="M -639.1785 -3122.6968 L -636.1229 -3122.6968 C -635.83565 -3124.3136 -635.06744 -3125.8616 -633.8182 -3127.111 C -632.31135 -3128.6177 -630.3696 -3129.4247 -628.397 -3129.5318 L -628.397 -3132.556 C -631.1434 -3132.4468 -633.8576 -3131.3438 -635.9544 -3129.247 C -637.7942 -3127.407 -638.8689 -3125.092 -639.1785 -3122.6968 Z"/></g><g id="Graphic_3985"><path fill="#efb54f" d="M -650.6065 -3122.6968 L -647.5779 -3122.6968 C -647.2337 -3127.2104 -645.33566 -3131.628 -641.8837 -3135.0797 C -634.2153 -3142.7482 -621.78225 -3142.7482 -614.1138 -3135.0797 C -613.2498 -3134.2158 -612.4832 -3133.2913 -611.8139 -3132.32 L -609.18996 -3133.835 C -609.9934 -3135.0277 -610.9226 -3136.161 -611.97765 -3137.216 C -620.8259 -3146.064 -635.17165 -3146.064 -644.0199 -3137.216 C -648.0618 -3133.174 -650.2573 -3127.985 -650.6065 -3122.6968 Z"/><path stroke="#efb64f" stroke-linecap="round" stroke-linejoin="round" stroke-width="0" d="M -650.6065 -3122.6968 L -647.5779 -3122.6968 C -647.2337 -3127.2104 -645.33566 -3131.628 -641.8837 -3135.0797 C -634.2153 -3142.7482 -621.78225 -3142.7482 -614.1138 -3135.0797 C -613.2498 -3134.2158 -612.4832 -3133.2913 -611.8139 -3132.32 L -609.18996 -3133.835 C -609.9934 -3135.0277 -610.9226 -3136.161 -611.97765 -3137.216 C -620.8259 -3146.064 -635.17165 -3146.064 -644.0199 -3137.216 C -648.0618 -3133.174 -650.2573 -3127.985 -650.6065 -3122.6968 Z"/></g></g><g id="Group_4136"><title/><g id="Graphic_4125"><path fill="#c92505" d="M -627.325 -3114.4264 L -627.325 -3119.1154 L -628.603 -3119.1154 L -628.603 -3114.3634 C -628.603 -3113.9494 -628.846 -3113.7874 -629.134 -3113.7874 C -629.422 -3113.7874 -629.665 -3113.9494 -629.665 -3114.3634 L -629.665 -3119.1154 L -630.943 -3119.1154 L -630.943 -3114.4264 C -630.943 -3113.9134 -630.772 -3113.4814 -630.466 -3113.1664 C -630.124 -3112.8154 -629.674 -3112.6354 -629.134 -3112.6354 C -628.594 -3112.6354 -628.144 -3112.8154 -627.802 -3113.1664 C -627.496 -3113.4814 -627.325 -3113.9134 -627.325 -3114.4264 Z"/></g><g id="Graphic_4126"><rect width="1.278" height="6.408" x="-626.38" y="-3119.115" fill="#c92505"/></g><g id="Graphic_4127"><path fill="#00882b" d="M -638.9125 -3101.4464 L -638.9125 -3102.5984 L -640.5865 -3102.5984 L -640.5865 -3107.8544 L -641.8645 -3107.8544 L -641.8645 -3101.4464 Z"/></g><g id="Graphic_4128"><path fill="#00882b" d="M -637.0765 -3101.4464 L -637.0765 -3106.0994 L -638.2825 -3106.0994 L -638.2825 -3101.4464 Z M -637.0405 -3106.6304 L -637.0405 -3107.9084 L -638.3185 -3107.9084 L -638.3185 -3106.6304 Z"/></g><g id="Graphic_4129"><path fill="#00882b" d="M -635.0965 -3101.4464 L -635.0965 -3101.7974 C -635.0425 -3101.7074 -634.8535 -3101.5544 -634.7455 -3101.4914 C -634.6105 -3101.4194 -634.4395 -3101.3744 -634.2865 -3101.3744 C -633.8905 -3101.3744 -633.6205 -3101.4734 -633.3865 -3101.7704 C -633.0535 -3102.1844 -633.0535 -3102.9044 -633.0535 -3103.8674 C -633.0535 -3104.8304 -633.0535 -3105.5504 -633.3865 -3105.9644 C -633.6205 -3106.2614 -633.8905 -3106.3604 -634.2865 -3106.3604 C -634.4395 -3106.3604 -634.6105 -3106.3154 -634.7455 -3106.2434 C -634.8535 -3106.1804 -634.9525 -3106.0994 -635.0425 -3106.0004 L -635.0425 -3107.8544 L -636.2485 -3107.8544 L -636.2485 -3101.4464 Z M -635.0425 -3104.8394 C -635.0425 -3104.9924 -635.0065 -3105.1004 -634.9345 -3105.1724 C -634.8715 -3105.2444 -634.7815 -3105.2804 -634.6735 -3105.2804 C -634.5475 -3105.2804 -634.4395 -3105.2264 -634.3675 -3105.1094 C -634.2865 -3104.9834 -634.2595 -3104.6954 -634.2595 -3103.8674 C -634.2595 -3103.0394 -634.2865 -3102.7514 -634.3675 -3102.6254 C -634.4395 -3102.5084 -634.5475 -3102.4544 -634.6735 -3102.4544 C -634.7815 -3102.4544 -634.8715 -3102.4904 -634.9345 -3102.5624 C -635.0065 -3102.6344 -635.0425 -3102.7424 -635.0425 -3102.8954 Z"/></g><g id="Graphic_4130"><path fill="#00882b" d="M -629.9665 -3105.1724 L -629.9665 -3106.3604 C -630.2275 -3106.3604 -630.4705 -3106.2974 -630.6775 -3106.1984 C -630.8935 -3106.0904 -631.0735 -3105.9374 -631.2085 -3105.7664 L -631.2085 -3106.2884 L -632.3605 -3106.2884 L -632.3605 -3101.4464 L -631.1545 -3101.4464 L -631.1545 -3104.3984 C -631.1545 -3104.8844 -630.8125 -3105.1724 -630.4075 -3105.1724 Z"/></g><g id="Graphic_4131"><path fill="#00882b" d="M -626.4655 -3101.4464 L -626.4655 -3104.7584 C -626.4655 -3105.3074 -626.6545 -3105.6944 -626.9245 -3105.9644 C -627.2125 -3106.2524 -627.6265 -3106.3604 -628.0405 -3106.3604 C -628.4635 -3106.3604 -628.9225 -3106.1714 -629.1655 -3105.9284 C -629.4805 -3105.6044 -629.6065 -3105.2444 -629.6065 -3104.8484 L -628.4005 -3104.8484 C -628.4005 -3104.9834 -628.3645 -3105.0914 -628.2925 -3105.1814 C -628.2295 -3105.2534 -628.1575 -3105.2984 -628.0315 -3105.2984 C -627.8065 -3105.2984 -627.6715 -3105.1454 -627.6715 -3104.8754 L -627.6715 -3104.3174 L -628.0405 -3104.3174 C -628.6705 -3104.3174 -628.9855 -3104.1824 -629.2285 -3103.9754 C -629.5345 -3103.7144 -629.6965 -3103.3364 -629.6965 -3102.8954 C -629.6965 -3102.4364 -629.6245 -3102.0764 -629.4175 -3101.8244 C -629.1565 -3101.5004 -628.8865 -3101.3744 -628.4365 -3101.3744 C -628.1935 -3101.3744 -628.0495 -3101.4284 -627.9055 -3101.5274 C -627.7795 -3101.6084 -627.6895 -3101.7254 -627.5905 -3101.8424 L -627.5905 -3101.4464 Z M -627.6715 -3102.9494 C -627.6715 -3102.6074 -627.8605 -3102.4274 -628.0765 -3102.4274 C -628.3285 -3102.4274 -628.4905 -3102.5984 -628.4905 -3102.9494 C -628.4905 -3103.0754 -628.4365 -3103.2734 -628.3375 -3103.3634 C -628.2115 -3103.4804 -628.0765 -3103.4804 -627.8785 -3103.4804 L -627.6715 -3103.4804 Z"/></g><g id="Graphic_4132"><path fill="#00882b" d="M -623.2615 -3105.1724 L -623.2615 -3106.3604 C -623.5225 -3106.3604 -623.7655 -3106.2974 -623.9725 -3106.1984 C -624.1885 -3106.0904 -624.3685 -3105.9374 -624.5035 -3105.7664 L -624.5035 -3106.2884 L -625.6555 -3106.2884 L -625.6555 -3101.4464 L -624.4495 -3101.4464 L -624.4495 -3104.3984 C -624.4495 -3104.8844 -624.1075 -3105.1724 -623.7025 -3105.1724 Z"/></g><g id="Graphic_4133"><path fill="#00882b" d="M -621.4795 -3101.4464 L -621.4795 -3106.0994 L -622.6855 -3106.0994 L -622.6855 -3101.4464 Z M -621.4435 -3106.6304 L -621.4435 -3107.9084 L -622.7215 -3107.9084 L -622.7215 -3106.6304 Z"/></g><g id="Graphic_4134"><path fill="#00882b" d="M -617.5645 -3103.4804 C -617.5645 -3104.5964 -617.6095 -3105.4874 -618.0505 -3105.9464 C -618.3925 -3106.2974 -618.7525 -3106.3604 -619.1755 -3106.3604 C -619.5805 -3106.3604 -619.9675 -3106.2974 -620.3095 -3105.9464 C -620.7505 -3105.4874 -620.7865 -3104.5964 -620.7865 -3103.8674 C -620.7865 -3103.1384 -620.7505 -3102.2474 -620.3095 -3101.7974 C -619.9675 -3101.4464 -619.6345 -3101.3744 -619.1755 -3101.3744 C -618.6715 -3101.3744 -618.3025 -3101.4914 -618.0325 -3101.7884 C -617.7175 -3102.1304 -617.6095 -3102.5354 -617.5915 -3102.9404 L -618.7975 -3102.9404 C -618.7975 -3102.8594 -618.8155 -3102.7154 -618.8605 -3102.6344 C -618.9235 -3102.5174 -619.0225 -3102.4544 -619.1755 -3102.4544 C -619.3285 -3102.4544 -619.4365 -3102.5354 -619.4905 -3102.6434 C -619.5625 -3102.7784 -619.5805 -3103.1564 -619.5805 -3103.4804 Z M -618.7705 -3104.3534 L -619.5805 -3104.3534 C -619.5805 -3104.7674 -619.5445 -3105.0014 -619.4905 -3105.1004 C -619.4275 -3105.2174 -619.3375 -3105.2804 -619.1755 -3105.2804 C -619.0135 -3105.2804 -618.9235 -3105.2174 -618.8605 -3105.1004 C -618.8065 -3105.0014 -618.7705 -3104.7674 -618.7705 -3104.3534 Z"/></g><g id="Graphic_4135"><path fill="#00882b" d="M -613.8745 -3102.9314 C -613.8745 -3103.2914 -613.9645 -3103.5524 -614.0905 -3103.7234 C -614.2525 -3103.9484 -614.4775 -3104.1014 -614.8195 -3104.2364 L -615.4855 -3104.4884 C -615.6295 -3104.5424 -615.7375 -3104.6144 -615.7915 -3104.7044 C -615.8365 -3104.7674 -615.8545 -3104.8304 -615.8545 -3104.9204 C -615.8545 -3105.0374 -615.8275 -3105.1274 -615.7555 -3105.1904 C -615.6925 -3105.2534 -615.5935 -3105.2984 -615.4765 -3105.2984 C -615.3775 -3105.2984 -615.2785 -3105.2534 -615.2065 -3105.1814 C -615.1435 -3105.1094 -615.1075 -3105.0014 -615.1075 -3104.8754 L -613.9285 -3104.8754 C -613.9285 -3105.3704 -614.1175 -3105.7124 -614.3785 -3105.9644 C -614.6485 -3106.2164 -615.0535 -3106.3604 -615.4765 -3106.3604 C -615.9085 -3106.3604 -616.3315 -3106.2164 -616.6195 -3105.9194 C -616.8895 -3105.6404 -617.0605 -3105.3254 -617.0605 -3104.8034 C -617.0605 -3104.5244 -617.0065 -3104.3084 -616.8985 -3104.1284 C -616.7455 -3103.8854 -616.4935 -3103.7054 -616.1515 -3103.5704 L -615.4765 -3103.3094 C -615.3415 -3103.2554 -615.2335 -3103.1924 -615.1615 -3103.1024 C -615.0985 -3103.0124 -615.0805 -3102.9314 -615.0805 -3102.8324 C -615.0805 -3102.7334 -615.1165 -3102.6164 -615.1795 -3102.5624 C -615.2695 -3102.4814 -615.3415 -3102.4634 -615.4675 -3102.4634 C -615.5755 -3102.4634 -615.6925 -3102.5084 -615.7645 -3102.5894 C -615.8365 -3102.6614 -615.8815 -3102.7694 -615.8905 -3102.9044 L -617.0785 -3102.9044 C -617.0695 -3102.4184 -616.8985 -3102.0944 -616.6195 -3101.7974 C -616.3495 -3101.5184 -615.8995 -3101.3744 -615.4675 -3101.3744 C -615.0355 -3101.3744 -614.6485 -3101.4644 -614.3335 -3101.7794 C -614.0815 -3102.0404 -613.8745 -3102.4004 -613.8745 -3102.9314 Z"/></g></g></g></g></g></svg>

<svg xmlns="http://www.w3.org/2000/svg" width="48" height="48" viewBox="-652 -3145.185 48 48"><g fill="none"><path fill="#fff" d="M-649-3145.185h42a3 3 0 0 1 3 3v42a3 3 0 0 1-3 3h-42a3 3 0 0 1-3-3v-42a3 3 0 0 1 3-3Z"/><path fill="#efb54f" fill-opacity=".252" d="M-650.604-3122.734h3.029a19.558 19.558 0 0 1 5.691-12.346c7.669-7.668 20.102-7.668 27.77 0a19.558 19.558 0 0 1 5.692 12.346h3.029a22.57 22.57 0 0 0-6.585-14.482c-8.848-8.848-23.194-8.848-32.042 0a22.571 22.571 0 0 0-6.584 14.482Z"/><path d="M-650.604-3122.734h3.029a19.558 19.558 0 0 1 5.691-12.346c7.669-7.668 20.102-7.668 27.77 0a19.558 19.558 0 0 1 5.692 12.346h3.029a22.57 22.57 0 0 0-6.585-14.482c-8.848-8.848-23.194-8.848-32.042 0a22.571 22.571 0 0 0-6.584 14.482Z"/><path fill="#d3673a" fill-opacity=".249" d="M-644.926-3122.697h3.036a13.913 13.913 0 0 1 4.012-8.378c5.456-5.456 14.303-5.456 19.759 0a13.913 13.913 0 0 1 4.012 8.378h3.035a16.924 16.924 0 0 0-4.91-10.514c-6.637-6.636-17.396-6.636-24.033 0a16.924 16.924 0 0 0-4.91 10.514Z"/><path d="M-644.926-3122.697h3.036a13.913 13.913 0 0 1 4.012-8.378c5.456-5.456 14.303-5.456 19.759 0a13.913 13.913 0 0 1 4.012 8.378h3.035a16.924 16.924 0 0 0-4.91-10.514c-6.637-6.636-17.396-6.636-24.033 0a16.924 16.924 0 0 0-4.91 10.514Z"/><path fill="#3570a0" fill-opacity=".25" d="M-639.223-3122.734h3.06a8.308 8.308 0 0 1 16.33 0h3.059a11.279 11.279 0 0 0-3.214-6.471c-4.424-4.425-11.597-4.425-16.021 0a11.279 11.279 0 0 0-3.214 6.471Z"/><path d="M-639.223-3122.734h3.06a8.308 8.308 0 0 1 16.33 0h3.059a11.279 11.279 0 0 0-3.214-6.471c-4.424-4.425-11.597-4.425-16.021 0a11.279 11.279 0 0 0-3.214 6.471Z"/><path fill="#d3673a" d="M-644.946-3122.734h3.036a13.914 13.914 0 0 1 4.01-8.35 13.93 13.93 0 0 1 9.958-4.093c1.886.01 3.772.401 5.53 1.171l1.181-2.781a17.012 17.012 0 0 0-6.717-1.411 16.94 16.94 0 0 0-12.089 4.977 16.925 16.925 0 0 0-4.909 10.487Z"/><path d="M-644.946-3122.734h3.036a13.914 13.914 0 0 1 4.01-8.35 13.93 13.93 0 0 1 9.958-4.093c1.886.01 3.772.401 5.53 1.171l1.181-2.781a17.012 17.012 0 0 0-6.717-1.411 16.94 16.94 0 0 0-12.089 4.977 16.925 16.925 0 0 0-4.909 10.487Z"/><path fill="#3570a0" d="M-639.178-3122.697h3.055a8.27 8.27 0 0 1 2.305-4.414 8.277 8.277 0 0 1 5.421-2.42v-3.025a11.288 11.288 0 0 0-7.557 3.309 11.28 11.28 0 0 0-3.225 6.55Z"/><path d="M-639.178-3122.697h3.055a8.27 8.27 0 0 1 2.305-4.414 8.277 8.277 0 0 1 5.421-2.42v-3.025a11.288 11.288 0 0 0-7.557 3.309 11.28 11.28 0 0 0-3.225 6.55Z"/><path fill="#efb54f" d="M-650.606-3122.697h3.028a19.559 19.559 0 0 1 5.694-12.383c7.669-7.668 20.102-7.668 27.77 0 .864.864 1.63 1.789 2.3 2.76l2.624-1.515a22.77 22.77 0 0 0-2.788-3.381c-8.848-8.848-23.194-8.848-32.042 0a22.57 22.57 0 0 0-6.587 14.52Z"/><path d="M-650.606-3122.697h3.028a19.559 19.559 0 0 1 5.694-12.383c7.669-7.668 20.102-7.668 27.77 0 .864.864 1.63 1.789 2.3 2.76l2.624-1.515a22.77 22.77 0 0 0-2.788-3.381c-8.848-8.848-23.194-8.848-32.042 0a22.57 22.57 0 0 0-6.587 14.52Z"/><path fill="#c92505" d="M-627.325-3114.426v-4.69h-1.278v4.753c0 .414-.243.576-.531.576-.288 0-.531-.162-.531-.576v-4.752h-1.278v4.689c0 .513.171.945.477 1.26.342.35.792.53 1.332.53s.99-.18 1.332-.53c.306-.315.477-.747.477-1.26ZM-626.38-3119.115h1.278v6.408h-1.278z"/><path fill="#00882b" d="M-638.913-3101.446v-1.152h-1.673v-5.256h-1.279v6.408ZM-637.077-3101.446v-4.653h-1.206v4.653Zm.037-5.184v-1.278h-1.279v1.278ZM-635.096-3101.446v-.351c.053.09.242.243.35.306.135.072.307.117.46.117.395 0 .665-.1.9-.396.332-.414.332-1.134.332-2.097 0-.963 0-1.683-.332-2.097-.235-.297-.505-.396-.9-.396-.154 0-.325.045-.46.117a1.257 1.257 0 0 0-.297.243v-1.854h-1.206v6.408Zm.053-3.393c0-.153.037-.261.109-.333a.333.333 0 0 1 .26-.108c.126 0 .235.054.307.17.08.127.107.415.107 1.243 0 .828-.027 1.116-.107 1.242a.343.343 0 0 1-.307.17.333.333 0 0 1-.26-.107c-.072-.072-.109-.18-.109-.333ZM-629.966-3105.172v-1.188c-.261 0-.505.063-.712.162a1.58 1.58 0 0 0-.53.432v-.522h-1.153v4.842h1.207v-2.952c0-.486.341-.774.746-.774ZM-626.466-3101.446v-3.312c0-.55-.188-.936-.458-1.206-.288-.288-.702-.396-1.116-.396-.423 0-.883.189-1.125.432a1.481 1.481 0 0 0-.442 1.08h1.207a.51.51 0 0 1 .107-.333.314.314 0 0 1 .261-.117c.226 0 .36.153.36.423v.558h-.368c-.63 0-.946.135-1.189.342-.305.26-.467.639-.467 1.08 0 .459.072.819.279 1.07.26.325.53.45.98.45a.847.847 0 0 0 .532-.152c.125-.081.216-.198.314-.315v.396Zm-1.206-1.503c0 .342-.188.522-.404.522-.252 0-.414-.171-.414-.522 0-.126.053-.324.153-.414.125-.117.26-.117.458-.117h.207ZM-623.261-3105.172v-1.188c-.262 0-.505.063-.712.162a1.58 1.58 0 0 0-.53.432v-.522h-1.152v4.842h1.206v-2.952c0-.486.341-.774.746-.774ZM-621.48-3101.446v-4.653h-1.206v4.653Zm.037-5.184v-1.278h-1.279v1.278ZM-617.564-3103.48c0-1.116-.046-2.007-.487-2.466-.341-.351-.702-.414-1.125-.414-.404 0-.791.063-1.133.414-.442.459-.478 1.35-.478 2.079 0 .729.037 1.62.478 2.07.341.35.674.423 1.133.423.505 0 .874-.117 1.144-.414.315-.342.423-.747.44-1.152h-1.206a.746.746 0 0 1-.063.306c-.063.117-.162.18-.315.18a.34.34 0 0 1-.314-.19c-.072-.134-.09-.512-.09-.836Zm-1.207-.873h-.81c0-.414.037-.648.09-.747.063-.117.154-.18.315-.18.163 0 .253.063.316.18.053.099.09.333.09.747ZM-613.875-3102.931c0-.36-.09-.621-.216-.792-.162-.225-.386-.378-.728-.513l-.667-.252c-.144-.054-.251-.126-.306-.216a.341.341 0 0 1-.063-.216c0-.117.028-.207.1-.27a.394.394 0 0 1 .548.009c.063.072.1.18.1.306h1.178a1.44 1.44 0 0 0-.45-1.09c-.27-.251-.674-.395-1.097-.395-.433 0-.856.144-1.144.44-.27.28-.44.595-.44 1.117 0 .279.053.495.161.675.154.243.405.423.747.558l.676.26a.741.741 0 0 1 .314.208c.064.09.082.17.082.27 0 .099-.036.216-.1.27-.09.08-.162.099-.288.099a.408.408 0 0 1-.297-.126.481.481 0 0 1-.125-.315h-1.188c.009.486.18.81.458 1.107.27.279.72.423 1.153.423.432 0 .818-.09 1.134-.405.251-.261.458-.621.458-1.152Z"/></g></svg>
